X:9150
T:Lady Hamilton's New Waltz. BF13.103
M:3/8
Q:30
S:J.Lishman(?)MS,c1825,Lakes,Browne Coll.
R:Waltz
O:England
A:Lakes
N:Lady Hamilton  famously Lord Nelson's mistress.
K:G
D|G/F/G/A/B/c/|.dd-B|.ee-c|.dd-B|G/F/G/A/B/c/|.dd-B|A/B/c/A/G/F/|G2::!
B|A-d.d|B-G.G|A-d.d|B2B|A-d.d|B-G.G|A/B/c/A/G/F/|G2::!
d|(3d/e/d/ cc|(3c/d/c/ BB|(3B/c/B/ AA|A2d|(3d/e/d/ cc|(3c/d/c/ BB|A/NB/c
/A/G/F/|G2:|]


